proprietary/assets/icons/medisch/capsule-met-vinkje.svg

<svg enable-background="new 0 0 64 64" height="64" viewBox="0 0 64 64" width="64" xmlns="http://www.w3.org/2000/svg"><path d="m0 0h64v64h-64z" fill="none"/><path d="m53.7 37.4c-.7-.6-1.8-.4-2.4.2l-10.6 11.9-6.3-5.5c-.7-.6-1.7-.6-2.3 0-.7.6-.8 1.5-.4 2.3l7.7 12.8c.3.5.9.9 1.5.9.6 0 1.2-.3 1.5-.9l11.7-19.4c.5-.8.3-1.8-.4-2.3zm-23.1 4.9c1.5-1.3 3.7-1.3 5.2 0l2 1.7 13-10.6c5.8-4.8 6.7-13.5 1.9-19.4-4.8-5.8-13.4-6.7-19.3-2l-21.2 17.4c-5.8 4.8-6.7 13.5-1.9 19.4s13.5 6.8 19.3 2.1l1.5-1.2-1.3-2.1c-1-1.8-.7-4 .8-5.3zm-8.3 6c-3.4.5-5.9-.6-7.9-3.1-1.4-1.8-1.9-3.9-1.7-5.9l3.7.6c-.2 3.1 2.7 7.3 6.6 7.9.1.2-.2.4-.7.5zm4.2-23.5 10.4-8.5c3.5-2.9 8.7-2.2 11.6 1.2 2.9 3.5 2.3 8.8-1.2 11.6l-9.8 8c.2-1.8-1.1-4.8-3.4-7.6-2.7-3.3-5.9-5.3-7.6-4.7z"/></svg>

<?xml version="1.0" encoding="utf-8"?>
<!-- Generator: Adobe Illustrator 21.0.2, SVG Export Plug-In . SVG Version: 6.00 Build 0)  -->
<!DOCTYPE svg PUBLIC "-//W3C//DTD SVG 1.1//EN" "http://www.w3.org/Graphics/SVG/1.1/DTD/svg11.dtd">
<svg version="1.1" xmlns="http://www.w3.org/2000/svg" xmlns:xlink="http://www.w3.org/1999/xlink" x="0px" y="0px" width="64px"
	 height="64px" viewBox="0 0 64 64" style="enable-background:new 0 0 64 64;" xml:space="preserve">
<style type="text/css">
	.st0{fill:none;}
</style>
<g id="_x36_4px_Box">
	<rect class="st0" width="64" height="64"/>
</g>
<g id="Icon">
	<g>
		<g>
			<path d="M53.7,37.4c-0.7-0.6-1.8-0.4-2.4,0.2L40.7,49.5L34.4,44c-0.7-0.6-1.7-0.6-2.3,0c-0.7,0.6-0.8,1.5-0.4,2.3l7.7,12.8
				c0.3,0.5,0.9,0.9,1.5,0.9h0c0.6,0,1.2-0.3,1.5-0.9l11.7-19.4C54.6,38.9,54.4,37.9,53.7,37.4z M30.6,42.3c1.5-1.3,3.7-1.3,5.2,0
				l2,1.7l13-10.6c5.8-4.8,6.7-13.5,1.9-19.4C47.9,8.2,39.3,7.3,33.4,12L12.2,29.4c-5.8,4.8-6.7,13.5-1.9,19.4
				c4.8,5.9,13.5,6.8,19.3,2.1l1.5-1.2l-1.3-2.1C28.8,45.8,29.1,43.6,30.6,42.3z M22.3,48.3c-3.4,0.5-5.9-0.6-7.9-3.1
				c-1.4-1.8-1.9-3.9-1.7-5.9l3.7,0.6c-0.2,3.1,2.7,7.3,6.6,7.9C23.1,48,22.8,48.2,22.3,48.3z M26.5,24.8l10.4-8.5
				c3.5-2.9,8.7-2.2,11.6,1.2c2.9,3.5,2.3,8.8-1.2,11.6l-9.8,8c0.2-1.8-1.1-4.8-3.4-7.6C31.4,26.2,28.2,24.2,26.5,24.8z"/>
		</g>
	</g>
</g>
</svg>
